src/activities/erase_clic/erase_clic.svg

<?xml version="1.0" encoding="UTF-8" standalone="no"?>
<!-- Created with Inkscape (http://www.inkscape.org/) -->

<svg
   xmlns:dc="http://purl.org/dc/elements/1.1/"
   xmlns:cc="http://creativecommons.org/ns#"
   xmlns:rdf="http://www.w3.org/1999/02/22-rdf-syntax-ns#"
   xmlns:svg="http://www.w3.org/2000/svg"
   xmlns="http://www.w3.org/2000/svg"
   xmlns:sodipodi="http://sodipodi.sourceforge.net/DTD/sodipodi-0.dtd"
   xmlns:inkscape="http://www.inkscape.org/namespaces/inkscape"
   width="100"
   height="100"
   id="svg2"
   sodipodi:version="0.32"
   inkscape:version="0.91 r13725"
   version="1.0"
   sodipodi:docname="erase_clic.svg">
  <defs
     id="defs4" />
  <sodipodi:namedview
     id="base"
     pagecolor="#ffffff"
     bordercolor="#666666"
     borderopacity="1.0"
     inkscape:pageopacity="0.0"
     inkscape:pageshadow="2"
     inkscape:zoom="3.2491557"
     inkscape:cx="-77.344414"
     inkscape:cy="64.419082"
     inkscape:document-units="px"
     inkscape:current-layer="layer1"
     width="100px"
     height="100px"
     inkscape:window-width="1880"
     inkscape:window-height="1060"
     inkscape:window-x="-3"
     inkscape:window-y="-3"
     showgrid="false"
     inkscape:window-maximized="1" />
  <metadata
     id="metadata7">
    <rdf:RDF>
      <cc:Work
         rdf:about="">
        <dc:format>image/svg+xml</dc:format>
        <dc:type
           rdf:resource="http://purl.org/dc/dcmitype/StillImage" />
        <dc:title></dc:title>
        <dc:date>2015</dc:date>
        <dc:creator>
          <cc:Agent>
            <dc:title>Timothée Giet</dc:title>
          </cc:Agent>
        </dc:creator>
        <cc:license
           rdf:resource="http://creativecommons.org/licenses/by-sa/4.0/" />
      </cc:Work>
      <cc:License
         rdf:about="http://creativecommons.org/licenses/by-sa/4.0/">
        <cc:permits
           rdf:resource="http://creativecommons.org/ns#Reproduction" />
        <cc:permits
           rdf:resource="http://creativecommons.org/ns#Distribution" />
        <cc:requires
           rdf:resource="http://creativecommons.org/ns#Notice" />
        <cc:requires
           rdf:resource="http://creativecommons.org/ns#Attribution" />
        <cc:permits
           rdf:resource="http://creativecommons.org/ns#DerivativeWorks" />
        <cc:requires
           rdf:resource="http://creativecommons.org/ns#ShareAlike" />
      </cc:License>
    </rdf:RDF>
  </metadata>
  <g
     inkscape:label="Calque 1"
     inkscape:groupmode="layer"
     id="layer1">
    <path
       style="fill:#2a2a2a;fill-opacity:1;fill-rule:evenodd;stroke:none;stroke-width:2.12904119;stroke-linecap:butt;stroke-linejoin:miter;stroke-miterlimit:4;stroke-dasharray:none;stroke-opacity:1"
       d="M 48.608818,92.19144 C 61.96003,98.336208 102.39597,52.88248 69.421038,40.20518 39.925851,28.86568 31.139001,85.94586 48.608818,92.19144 Z"
       id="path2092-3"
       sodipodi:nodetypes="csc"
       inkscape:connector-curvature="0" />
    <path
       style="fill:#83cbc6;fill-opacity:1;fill-rule:evenodd;stroke:none;stroke-width:2.12904119;stroke-linecap:butt;stroke-linejoin:miter;stroke-miterlimit:4;stroke-dasharray:none;stroke-opacity:1"
       d="M 49.905129,89.39437 C 61.844569,94.88938 98.00477,54.24198 68.516641,42.90519 42.140309,32.76474 34.28259,83.8092 49.905129,89.39437 Z"
       id="path2092"
       sodipodi:nodetypes="csc"
       inkscape:connector-curvature="0" />
    <path
       style="fill:none;stroke:none;stroke-width:2.12904119;stroke-linecap:butt;stroke-linejoin:miter;stroke-miterlimit:4;stroke-dasharray:none;stroke-opacity:1"
       d="M 49.470399,87.97516 C 61.40984,93.47017 97.570037,52.82277 68.081911,41.48598 41.705579,31.34553 33.84786,82.38999 49.470399,87.97516 Z"
       id="path3035"
       sodipodi:nodetypes="csc"
       inkscape:connector-curvature="0" />
    <path
       inkscape:connector-curvature="0"
       style="fill:#f05e5e;fill-opacity:1;fill-rule:evenodd;stroke:none;stroke-width:2.12904119;stroke-linecap:butt;stroke-linejoin:miter;stroke-miterlimit:4;stroke-dasharray:none;stroke-opacity:1"
       d="m 61.590512,41.578614 c -6.858364,0.118329 -11.99369,4.857635 -15.300781,11.310547 6.241231,4.835475 13.701172,7.855468 13.701172,7.855468 1.770459,-5.678441 3.893009,-11.473697 8.136719,-17.976562 -2.32541,-0.846559 -4.5075,-1.224471 -6.53711,-1.189453 z"
       id="path2092-6" />
    <path
       style="color:#000000;font-style:normal;font-variant:normal;font-weight:normal;font-stretch:normal;font-size:medium;line-height:normal;font-family:sans-serif;text-indent:0;text-align:start;text-decoration:none;text-decoration-line:none;text-decoration-style:solid;text-decoration-color:#000000;letter-spacing:normal;word-spacing:normal;text-transform:none;direction:ltr;block-progression:tb;writing-mode:lr-tb;baseline-shift:baseline;text-anchor:start;white-space:normal;clip-rule:nonzero;display:inline;overflow:visible;visibility:visible;opacity:1;isolation:auto;mix-blend-mode:normal;color-interpolation:sRGB;color-interpolation-filters:linearRGB;solid-color:#000000;solid-opacity:1;fill:#282828;fill-opacity:1;fill-rule:evenodd;stroke:none;stroke-width:2.12904119;stroke-linecap:butt;stroke-linejoin:miter;stroke-miterlimit:4;stroke-dasharray:none;stroke-dashoffset:0;stroke-opacity:1;color-rendering:auto;image-rendering:auto;shape-rendering:auto;text-rendering:auto;enable-background:accumulate"
       d="m 45.851769,51.58243 -1.005301,1.29018 c 0,0 2.919717,3.40892 8.671875,6.41964 5.752157,3.01072 14.046186,6.04119 25.636997,6.17969 l 0.382533,-2.48605 C 68.304749,62.85167 60.002675,60.46078 54.506623,57.5841 49.010571,54.70743 45.851768,51.58243 45.851769,51.58243 Z"
       id="path3039"
       inkscape:connector-curvature="0"
       sodipodi:nodetypes="ccsccsc" />
    <path
       style="color:#000000;font-style:normal;font-variant:normal;font-weight:normal;font-stretch:normal;font-size:medium;line-height:normal;font-family:sans-serif;text-indent:0;text-align:start;text-decoration:none;text-decoration-line:none;text-decoration-style:solid;text-decoration-color:#000000;letter-spacing:normal;word-spacing:normal;text-transform:none;direction:ltr;block-progression:tb;writing-mode:lr-tb;baseline-shift:baseline;text-anchor:start;white-space:normal;clip-rule:nonzero;display:inline;overflow:visible;visibility:visible;opacity:1;isolation:auto;mix-blend-mode:normal;color-interpolation:sRGB;color-interpolation-filters:linearRGB;solid-color:#000000;solid-opacity:1;fill:#2a2a2a;fill-opacity:1;fill-rule:evenodd;stroke:none;stroke-width:2.12904119;stroke-linecap:butt;stroke-linejoin:miter;stroke-miterlimit:4;stroke-dasharray:none;stroke-dashoffset:0;stroke-opacity:1;color-rendering:auto;image-rendering:auto;shape-rendering:auto;text-rendering:auto;enable-background:accumulate"
       d="m 68.112093,41.57378 c -3.960578,6.00031 -7.778632,11.80425 -9.842355,18.35185 l 2.388393,0.81919 c 1.984206,-6.29531 4.627841,-12.46417 8.51702,-18.3563 z"
       id="path3037"
       inkscape:connector-curvature="0"
       sodipodi:nodetypes="ccccc" />
    <g
       id="g22156"
       transform="matrix(1.0030285,0,0,0.9999956,11.331243,26.34083)">
      <path
         id="path21267"
         d="M 20.980236,5.9570105 9.9380067,-2.3246617 4.4168919,-5.0852191 l 4.0488175,-5.7051519 7.7295606,-4.232855 8.46571,9.017821 4.600929,4.2328548 8.281672,-6.6253378 2.024409,2.2084459 0.552111,3.4967061 -2.392483,16.011233 -18.403716,1.472297 -4.048818,-2.57652 1.288261,-2.7605574 4.416891,-3.4967061 z"
         style="fill:#f32929;fill-opacity:1;fill-rule:evenodd;stroke:none;stroke-width:1px;stroke-linecap:butt;stroke-linejoin:miter;stroke-opacity:1"
         inkscape:connector-curvature="0" />
      <path
         sodipodi:nodetypes="ccccccccccscccccccccccccccc"
         id="path20377"
         d="M 17.486149,-17.96875 7.734375,-12.357686 -0.54510135,-4.90625 9.5782095,0.06942568 17.125,5.78125 11.40625,11.46875 16.75,17 39.1875,15.34375 42.875,-6 38.65625,-11.15625 c 0,0 -7.177028,6.2396113 -8.833361,6.2396115 -1.656335,0 -12.336739,-13.0521115 -12.33674,-13.0521115 z m -1.298649,5.875 8.843666,10.3195101 4.607685,2.40278719 6.423649,-5.72229729 1.84375,-0.71875 0.9375,2.75 L 38.083361,0.26047297 35.902703,11.670186 26.5,12.78125 19.125,13.125 17.65625,12.03125 23.9375,7.8125 22.09375,2.84375 7.53125,-5.8125 16.1875,-12.09375 Z"
         style="fill:#9a0e0e;fill-opacity:1;fill-rule:evenodd;stroke:none"
         inkscape:connector-curvature="0" />
    </g>
    <path
       inkscape:connector-curvature="0"
       style="color:#000000;font-style:normal;font-variant:normal;font-weight:normal;font-stretch:normal;font-size:medium;line-height:normal;font-family:sans-serif;text-indent:0;text-align:start;text-decoration:none;text-decoration-line:none;text-decoration-style:solid;text-decoration-color:#000000;letter-spacing:normal;word-spacing:normal;text-transform:none;direction:ltr;block-progression:tb;writing-mode:lr-tb;baseline-shift:baseline;text-anchor:start;white-space:normal;clip-rule:nonzero;display:inline;overflow:visible;visibility:visible;opacity:1;isolation:auto;mix-blend-mode:normal;color-interpolation:sRGB;color-interpolation-filters:linearRGB;solid-color:#000000;solid-opacity:1;fill:#2a2a2a;fill-opacity:1;fill-rule:nonzero;stroke:none;stroke-width:1.00151086px;stroke-linecap:butt;stroke-linejoin:miter;stroke-miterlimit:4;stroke-dasharray:none;stroke-dashoffset:0;stroke-opacity:1;color-rendering:auto;image-rendering:auto;shape-rendering:auto;text-rendering:auto;enable-background:accumulate"
       d="m 59.262387,7.2504889 c -3.897095,-0.07555 -8.082263,0.274438 -12.49414,1.119141 -0.317773,0.03013 -0.622548,0.04451 -0.94336,0.07813 l 0.103516,0.996093 c 0.03855,-0.004 0.07478,-0.0058 0.113281,-0.0098 l 0.01563,0.07813 c 0.282666,-0.05832 0.555234,-0.0944 0.835933,-0.148433 17.793641,-1.677263 30.678734,2.2278531 37.951172,7.0429691 0.486302,0.379501 0.945885,0.763757 1.376953,1.15039 3.507178,3.14567 5.086357,6.444768 4.630859,8.648438 -0.227749,1.10184 -0.913209,1.984049 -2.230469,2.599609 -0.538438,0.251614 -1.213066,0.435864 -1.96875,0.572266 -1.238237,0.14305 -2.686708,0.154933 -4.402343,-0.04102 l -0.02148,-0.002 -0.01953,-0.0039 c -0.927907,-0.02946 -1.764133,0.02378 -2.560547,0.109375 -1.979369,0.07508 -3.563792,0.456671 -4.816406,1.072266 -1.843547,0.906049 -2.963867,2.305378 -3.623047,3.792968 -0.440515,0.994122 -0.673883,2.020574 -0.81836,2.994141 -0.369831,1.419767 -0.528118,2.788766 -0.648437,3.880859 l 0.292969,0.03125 c -0.0184,0.137211 -0.03772,0.267591 -0.0625,0.345703 l 0.955078,0.302735 c 0.236675,-0.74594 0.194999,-1.795798 0.296875,-3.080078 0.03127,-0.39422 0.08084,-0.807944 0.140625,-1.226563 0.304373,-1.169783 0.750748,-2.352381 1.460937,-3.404297 1.241899,-1.839464 3.268941,-3.313949 6.789063,-3.707031 0.898954,-0.03794 1.88931,-0.01286 3.001953,0.09961 l 0.0078,0 0.0059,0 c 1.728794,0.122498 3.208046,0.04587 4.451172,-0.205078 0.659784,-0.0915 1.283492,-0.210737 1.832031,-0.384765 1.712387,-0.54327 2.903345,-1.498231 3.474609,-2.744141 0.571263,-1.24592 0.502866,-2.727283 -0.107421,-4.251953 -0.610288,-1.52466 -1.759269,-3.116388 -3.41211,-4.679688 C 87.842739,17.304444 86.611019,16.345461 85.195981,15.422364 79.533217,11.09823 70.570902,7.4698609 59.262387,7.2504889 Z"
       id="path3071" />
    <g
       style="font-style:normal;font-variant:normal;font-weight:normal;font-stretch:normal;font-size:40px;line-height:125%;font-family:sans-serif;-inkscape-font-specification:sans-serif;letter-spacing:0px;word-spacing:0px;fill:#2a2a2a;fill-opacity:1;stroke:none;stroke-width:1px;stroke-linecap:butt;stroke-linejoin:miter;stroke-opacity:1"
       id="text4183-4"
       transform="translate(75.383481,7.3873679)">
      <path
         d="m -64.766203,59.610901 -3.39847,-5.843575 18.831788,-11.574989 0,39.559095 -9.600959,-0.09333 0,-25.041895 z"
         style="font-style:normal;font-variant:normal;font-weight:normal;font-stretch:normal;font-family:Kabel;-inkscape-font-specification:Kabel;fill:#2a2a2a;fill-opacity:1"
         id="path4209"
         inkscape:connector-curvature="0"
         sodipodi:nodetypes="ccccccc" />
    </g>
    <g
       style="font-style:normal;font-variant:normal;font-weight:normal;font-stretch:normal;font-size:40px;line-height:125%;font-family:sans-serif;-inkscape-font-specification:sans-serif;letter-spacing:0px;word-spacing:0px;fill:#e4f4f3;fill-opacity:1;stroke:none;stroke-width:1px;stroke-linecap:butt;stroke-linejoin:miter;stroke-opacity:1"
       id="text4183"
       transform="translate(75.383481,7.3873679)">
      <path
         d="m -64.141923,57.353823 -1.574009,-3.087372 14.54985,-8.385377 -0.153886,33.366157 -6.051603,-0.04677 5.2e-4,-24.915714 z"
         style="font-style:normal;font-variant:normal;font-weight:normal;font-stretch:normal;font-family:Kabel;-inkscape-font-specification:Kabel;fill:#e4f4f3;fill-opacity:1"
         id="path4206"
         inkscape:connector-curvature="0"
         sodipodi:nodetypes="ccccccc" />
    </g>
  </g>
</svg>

<!--Created with Inkscape (http://www.inkscape.org/)--><svg xmlns:dc="http://purl.org/dc/elements/1.1/" xmlns:cc="http://creativecommons.org/ns#" xmlns:rdf="http://www.w3.org/1999/02/22-rdf-syntax-ns#" xmlns="http://www.w3.org/2000/svg" xmlns:sodipodi="http://sodipodi.sourceforge.net/DTD/sodipodi-0.dtd" xmlns:inkscape="http://www.inkscape.org/namespaces/inkscape" width="100" height="100" sodipodi:version="0.32" inkscape:version="0.91 r13725" version="1.0" sodipodi:docname="erase_clic.svg"><sodipodi:namedview pagecolor="#ffffff" bordercolor="#666666" borderopacity="1.0" inkscape:pageopacity="0.0" inkscape:pageshadow="2" inkscape:zoom="3.2491557" inkscape:cx="-77.344414" inkscape:cy="64.419082" inkscape:document-units="px" inkscape:current-layer="layer1" width="100px" height="100px" inkscape:window-width="1880" inkscape:window-height="1060" inkscape:window-x="-3" inkscape:window-y="-3" showgrid="false" inkscape:window-maximized="1"/><metadata><rdf:RDF><cc:Work><dc:format>image/svg+xml</dc:format><dc:type rdf:resource="http://purl.org/dc/dcmitype/StillImage"/><dc:title/><dc:date>2015</dc:date><dc:creator><cc:Agent><dc:title>Timothée Giet</dc:title></cc:Agent></dc:creator><cc:license rdf:resource="http://creativecommons.org/licenses/by-sa/4.0/"/></cc:Work><cc:License rdf:about="http://creativecommons.org/licenses/by-sa/4.0/"><cc:permits rdf:resource="http://creativecommons.org/ns#Reproduction"/><cc:permits rdf:resource="http://creativecommons.org/ns#Distribution"/><cc:requires rdf:resource="http://creativecommons.org/ns#Notice"/><cc:requires rdf:resource="http://creativecommons.org/ns#Attribution"/><cc:permits rdf:resource="http://creativecommons.org/ns#DerivativeWorks"/><cc:requires rdf:resource="http://creativecommons.org/ns#ShareAlike"/></cc:License></rdf:RDF></metadata><g inkscape:label="Calque 1" inkscape:groupmode="layer"><path style="fill:#2a2a2a;fill-opacity:1;fill-rule:evenodd;stroke:none;stroke-width:2.12904119;stroke-linecap:butt;stroke-linejoin:miter;stroke-miterlimit:4;stroke-dasharray:none;stroke-opacity:1" d="M48.609 92.191c13.351 6.145 53.787-39.309 20.812-51.986-29.495-11.34-38.282 45.74-20.812 51.986z" sodipodi:nodetypes="csc" inkscape:connector-curvature="0"/><path style="fill:#83cbc6;fill-opacity:1;fill-rule:evenodd;stroke:none;stroke-width:2.12904119;stroke-linecap:butt;stroke-linejoin:miter;stroke-miterlimit:4;stroke-dasharray:none;stroke-opacity:1" d="M49.905 89.394c11.94 5.495 48.1-35.152 18.612-46.489-26.377-10.14-34.234 40.904-18.612 46.49z" sodipodi:nodetypes="csc" inkscape:connector-curvature="0"/><path style="fill:none;stroke:none;stroke-width:2.12904119;stroke-linecap:butt;stroke-linejoin:miter;stroke-miterlimit:4;stroke-dasharray:none;stroke-opacity:1" d="M49.47 87.975c11.94 5.495 48.1-35.152 18.612-46.489-26.376-10.14-34.234 40.904-18.612 46.49z" sodipodi:nodetypes="csc" inkscape:connector-curvature="0"/><path inkscape:connector-curvature="0" style="fill:#f05e5e;fill-opacity:1;fill-rule:evenodd;stroke:none;stroke-width:2.12904119;stroke-linecap:butt;stroke-linejoin:miter;stroke-miterlimit:4;stroke-dasharray:none;stroke-opacity:1" d="M61.59 41.579c-6.858.118-11.993 4.857-15.3 11.31 6.241 4.836 13.7 7.856 13.7 7.856 1.771-5.679 3.894-11.474 8.138-17.977-2.326-.846-4.508-1.224-6.537-1.19z"/><path style="color:#000;font-style:normal;font-variant:normal;font-weight:400;font-stretch:normal;font-size:medium;line-height:normal;font-family:sans-serif;text-indent:0;text-align:start;text-decoration:none;text-decoration-line:none;text-decoration-style:solid;text-decoration-color:#000;letter-spacing:normal;word-spacing:normal;text-transform:none;direction:ltr;block-progression:tb;writing-mode:lr-tb;baseline-shift:baseline;text-anchor:start;white-space:normal;clip-rule:nonzero;display:inline;overflow:visible;visibility:visible;opacity:1;isolation:auto;mix-blend-mode:normal;color-interpolation:sRGB;color-interpolation-filters:linearRGB;solid-color:#000;solid-opacity:1;fill:#282828;fill-opacity:1;fill-rule:evenodd;stroke:none;stroke-width:2.12904119;stroke-linecap:butt;stroke-linejoin:miter;stroke-miterlimit:4;stroke-dasharray:none;stroke-dashoffset:0;stroke-opacity:1;color-rendering:auto;image-rendering:auto;shape-rendering:auto;text-rendering:auto;enable-background:accumulate" d="m45.852 51.582-1.006 1.29s2.92 3.41 8.672 6.42c5.752 3.011 14.047 6.041 25.637 6.18l.383-2.486c-11.233-.134-19.535-2.525-25.031-5.402-5.496-2.877-8.655-6.002-8.655-6.002z" inkscape:connector-curvature="0" sodipodi:nodetypes="ccsccsc"/><path style="color:#000;font-style:normal;font-variant:normal;font-weight:400;font-stretch:normal;font-size:medium;line-height:normal;font-family:sans-serif;text-indent:0;text-align:start;text-decoration:none;text-decoration-line:none;text-decoration-style:solid;text-decoration-color:#000;letter-spacing:normal;word-spacing:normal;text-transform:none;direction:ltr;block-progression:tb;writing-mode:lr-tb;baseline-shift:baseline;text-anchor:start;white-space:normal;clip-rule:nonzero;display:inline;overflow:visible;visibility:visible;opacity:1;isolation:auto;mix-blend-mode:normal;color-interpolation:sRGB;color-interpolation-filters:linearRGB;solid-color:#000;solid-opacity:1;fill:#2a2a2a;fill-opacity:1;fill-rule:evenodd;stroke:none;stroke-width:2.12904119;stroke-linecap:butt;stroke-linejoin:miter;stroke-miterlimit:4;stroke-dasharray:none;stroke-dashoffset:0;stroke-opacity:1;color-rendering:auto;image-rendering:auto;shape-rendering:auto;text-rendering:auto;enable-background:accumulate" d="M68.112 41.574c-3.96 6-7.779 11.804-9.842 18.352l2.388.819c1.984-6.295 4.628-12.464 8.517-18.356z" inkscape:connector-curvature="0" sodipodi:nodetypes="ccccc"/><path d="M20.98 5.957 9.938-2.325l-5.521-2.76 4.049-5.705 7.73-4.233 8.465 9.018 4.6 4.232 8.283-6.625 2.024 2.209.552 3.496-2.392 16.011-18.404 1.473-4.049-2.577 1.288-2.76 4.417-3.497z" style="fill:#f32929;fill-opacity:1;fill-rule:evenodd;stroke:none;stroke-width:1px;stroke-linecap:butt;stroke-linejoin:miter;stroke-opacity:1" inkscape:connector-curvature="0" transform="matrix(1.00303 0 0 1 11.331 26.34)"/><path sodipodi:nodetypes="ccccccccccscccccccccccccccc" d="m17.486-17.969-9.752 5.611-8.28 7.452L9.579.069l7.547 5.712-5.719 5.688L16.75 17l22.438-1.656L42.874-6l-4.219-5.156s-7.177 6.24-8.833 6.24c-1.656 0-12.337-13.053-12.337-13.053zm-1.298 5.875 8.843 10.32L29.64.629l6.423-5.723 1.844-.718.938 2.75-.76 3.322-2.181 11.41-9.403 1.111-7.375.344-1.469-1.094 6.282-4.219-1.844-4.968L7.53-5.812l8.657-6.282z" style="fill:#9a0e0e;fill-opacity:1;fill-rule:evenodd;stroke:none" inkscape:connector-curvature="0" transform="matrix(1.00303 0 0 1 11.331 26.34)"/><path inkscape:connector-curvature="0" style="color:#000;font-style:normal;font-variant:normal;font-weight:400;font-stretch:normal;font-size:medium;line-height:normal;font-family:sans-serif;text-indent:0;text-align:start;text-decoration:none;text-decoration-line:none;text-decoration-style:solid;text-decoration-color:#000;letter-spacing:normal;word-spacing:normal;text-transform:none;direction:ltr;block-progression:tb;writing-mode:lr-tb;baseline-shift:baseline;text-anchor:start;white-space:normal;clip-rule:nonzero;display:inline;overflow:visible;visibility:visible;opacity:1;isolation:auto;mix-blend-mode:normal;color-interpolation:sRGB;color-interpolation-filters:linearRGB;solid-color:#000;solid-opacity:1;fill:#2a2a2a;fill-opacity:1;fill-rule:nonzero;stroke:none;stroke-width:1.00151086px;stroke-linecap:butt;stroke-linejoin:miter;stroke-miterlimit:4;stroke-dasharray:none;stroke-dashoffset:0;stroke-opacity:1;color-rendering:auto;image-rendering:auto;shape-rendering:auto;text-rendering:auto;enable-background:accumulate" d="M59.262 7.25c-3.897-.075-8.082.275-12.494 1.12-.318.03-.622.044-.943.078l.103.996.114-.01.015.078c.283-.058.556-.094.836-.148 17.794-1.678 30.679 2.228 37.951 7.043.487.38.946.763 1.377 1.15 3.508 3.146 5.087 6.445 4.631 8.649-.228 1.101-.913 1.984-2.23 2.6-.539.25-1.213.435-1.969.571-1.238.143-2.687.155-4.402-.04l-.022-.003-.02-.003c-.927-.03-1.763.023-2.56.109-1.98.075-3.564.457-4.816 1.072-1.844.906-2.964 2.306-3.623 3.793-.44.994-.674 2.02-.819 2.994-.37 1.42-.528 2.789-.648 3.881l.293.031a2.417 2.417 0 0 1-.063.346l.955.303c.237-.746.195-1.796.297-3.08.032-.394.081-.808.14-1.227.305-1.17.752-2.352 1.462-3.404 1.242-1.84 3.269-3.314 6.789-3.707.899-.038 1.89-.013 3.002.1h.014c1.728.122 3.208.045 4.45-.206.66-.091 1.284-.21 1.833-.384 1.712-.544 2.903-1.499 3.474-2.745.572-1.245.503-2.727-.107-4.251-.61-1.525-1.76-3.117-3.412-4.68-1.027-.972-2.259-1.93-3.674-2.854-5.663-4.324-14.625-7.952-25.934-8.172z"/><g style="font-style:normal;font-variant:normal;font-weight:400;font-stretch:normal;font-size:40px;line-height:125%;font-family:sans-serif;-inkscape-font-specification:sans-serif;letter-spacing:0;word-spacing:0;fill:#2a2a2a;fill-opacity:1;stroke:none;stroke-width:1px;stroke-linecap:butt;stroke-linejoin:miter;stroke-opacity:1"><path d="m-64.766 59.61-3.399-5.843 18.832-11.575v39.56l-9.6-.094V56.616z" style="font-style:normal;font-variant:normal;font-weight:400;font-stretch:normal;font-family:Kabel;-inkscape-font-specification:Kabel;fill:#2a2a2a;fill-opacity:1" inkscape:connector-curvature="0" sodipodi:nodetypes="ccccccc" transform="translate(75.383 7.387)"/></g><g style="font-style:normal;font-variant:normal;font-weight:400;font-stretch:normal;font-size:40px;line-height:125%;font-family:sans-serif;-inkscape-font-specification:sans-serif;letter-spacing:0;word-spacing:0;fill:#e4f4f3;fill-opacity:1;stroke:none;stroke-width:1px;stroke-linecap:butt;stroke-linejoin:miter;stroke-opacity:1"><path d="m-64.142 57.354-1.574-3.088 14.55-8.385-.154 33.366-6.052-.047V54.285z" style="font-style:normal;font-variant:normal;font-weight:400;font-stretch:normal;font-family:Kabel;-inkscape-font-specification:Kabel;fill:#e4f4f3;fill-opacity:1" inkscape:connector-curvature="0" sodipodi:nodetypes="ccccccc" transform="translate(75.383 7.387)"/></g></g></svg>
